src/images_karasa_jaga_svg/cmd/lc_fontworkshapetype.fontwork-arch-down-curve.svg

<svg height="24" viewBox="0 0 24 24" width="24" xmlns="http://www.w3.org/2000/svg" xmlns:xlink="http://www.w3.org/1999/xlink"><linearGradient id="a" gradientUnits="userSpaceOnUse" x1=".00015" x2="127.99835" y1="93.0923" y2="93.0923"><stop offset="0" stop-color="#7c9fcf"/><stop offset=".5" stop-color="#7c9ece"/><stop offset="1" stop-color="#7b9dcf"/></linearGradient><linearGradient id="b" gradientUnits="userSpaceOnUse" x1="63.999101" x2="63.999101" y1="-5.815251" y2="93.092453"><stop offset="0" stop-color="#fff"/><stop offset=".53340602" stop-color="#fff"/><stop offset=".9375" stop-color="#f1f1f1"/><stop offset=".96875" stop-color="#eaeaea"/><stop offset="1" stop-color="#dfdfdf"/></linearGradient><g transform="matrix(.171875 0 0 -.171875 1.000155 22.000349)"><path d="m64.00015 29.093354a63.9991 63.9991 0 0 0 -64 63.998046h23.273438a40.7258 40.7258 0 0 1 40.726562-40.726562 40.7258 40.7258 0 0 1 40.72656 40.726562h23.27149a63.9991 63.9991 0 0 0 -63.99805-63.998046z" fill="url(#a)"/><path d="m64.00015 34.911713a58.179791 58.179791 0 0 0 -57.828125 52.363281h11.695313a46.5439 46.5439 0 0 1 46.132812-40.726563 46.5439 46.5439 0 0 1 46.11914 40.726563h11.76758a58.179791 58.179791 0 0 0 -57.88672-52.363281z" fill="url(#b)"/></g></svg>

<?xml version="1.0" encoding="UTF-8" standalone="no"?>
<!-- Created with Inkscape (http://www.inkscape.org/) -->

<svg
   xmlns:dc="http://purl.org/dc/elements/1.1/"
   xmlns:cc="http://creativecommons.org/ns#"
   xmlns:rdf="http://www.w3.org/1999/02/22-rdf-syntax-ns#"
   xmlns:svg="http://www.w3.org/2000/svg"
   xmlns="http://www.w3.org/2000/svg"
   xmlns:xlink="http://www.w3.org/1999/xlink"
   xmlns:sodipodi="http://sodipodi.sourceforge.net/DTD/sodipodi-0.dtd"
   xmlns:inkscape="http://www.inkscape.org/namespaces/inkscape"
   version="1.1"
   id="svg2"
   width="128"
   height="128"
   viewBox="0 0 128 128"
   sodipodi:docname="lc_fontworkshapetype.fontwork-arch-down-curve.svg"
   inkscape:export-filename="/home/rizmut/Dokumen/Rizmut/Github/libreoffice-style-karasa-jaga/build/images_karasa_jaga/cmd/lc_fontworkshapetype.fontwork-arch-down-curve.png"
   inkscape:export-xdpi="16.5"
   inkscape:export-ydpi="16.5"
   inkscape:version="0.92.3 (unknown)">
  <metadata
     id="metadata8">
    <rdf:RDF>
      <cc:Work
         rdf:about="">
        <dc:format>image/svg+xml</dc:format>
        <dc:type
           rdf:resource="http://purl.org/dc/dcmitype/StillImage" />
        <dc:title></dc:title>
      </cc:Work>
    </rdf:RDF>
  </metadata>
  <defs
     id="defs6">
    <linearGradient
       id="linearGradient7422">
      <stop
         style="stop-color:#7c9fcf;stop-opacity:1"
         offset="0"
         id="stop7424" />
      <stop
         id="stop5348"
         offset="0.5"
         style="stop-color:#7c9ece;stop-opacity:1" />
      <stop
         id="stop7426"
         offset="1"
         style="stop-color:#7b9dcf;stop-opacity:1" />
    </linearGradient>
    <linearGradient
       id="linearGradient3369">
      <stop
         id="stop3372"
         offset="0"
         style="stop-color:#ffffff;stop-opacity:1;" />
      <stop
         style="stop-color:#ffffff;stop-opacity:1;"
         offset="0.53340602"
         id="stop3374" />
      <stop
         style="stop-color:#f1f1f1;stop-opacity:1;"
         offset="0.9375"
         id="stop3376" />
      <stop
         id="stop3378"
         offset="0.96875"
         style="stop-color:#eaeaea;stop-opacity:1;" />
      <stop
         id="stop3384"
         offset="1"
         style="stop-color:#dfdfdf;stop-opacity:1;" />
    </linearGradient>
    <linearGradient
       inkscape:collect="always"
       xlink:href="#linearGradient7422"
       id="linearGradient1452"
       x1="0"
       y1="64.0009"
       x2="127.9982"
       y2="64.0009"
       gradientUnits="userSpaceOnUse"
       gradientTransform="translate(1.5e-4,29.0914)" />
    <linearGradient
       inkscape:collect="always"
       xlink:href="#linearGradient3369"
       id="linearGradient1469"
       x1="63.998951"
       y1="-34.906651"
       x2="63.998951"
       y2="64.001053"
       gradientUnits="userSpaceOnUse"
       gradientTransform="translate(1.5e-4,29.0914)" />
  </defs>
  <sodipodi:namedview
     pagecolor="#ffffff"
     bordercolor="#666666"
     borderopacity="1"
     objecttolerance="10"
     gridtolerance="10"
     guidetolerance="10"
     inkscape:pageopacity="0"
     inkscape:pageshadow="2"
     inkscape:window-width="1366"
     inkscape:window-height="706"
     id="namedview4"
     showgrid="true"
     inkscape:snap-page="true"
     inkscape:snap-global="true"
     inkscape:zoom="1.4142136"
     inkscape:cx="111.49659"
     inkscape:cy="66.077951"
     inkscape:window-x="0"
     inkscape:window-y="0"
     inkscape:window-maximized="1"
     inkscape:current-layer="svg2"
     inkscape:snap-smooth-nodes="true">
    <inkscape:grid
       type="xygrid"
       id="grid1442"
       spacingx="5.8181"
       spacingy="5.8181"
       empspacing="1" />
  </sodipodi:namedview>
  <g
     id="g1525"
     transform="matrix(1,0,0,-1,0,122.18475)">
    <path
       inkscape:connector-curvature="0"
       id="path1444"
       d="m 64.00015,29.093354 a 63.9991,63.9991 0 0 0 -64,63.998046 H 23.273588 A 40.7258,40.7258 0 0 1 64.00015,52.364838 40.7258,40.7258 0 0 1 104.72671,93.0914 H 127.9982 A 63.9991,63.9991 0 0 0 64.00015,29.093354 Z"
       style="opacity:1;fill:url(#linearGradient1452);fill-opacity:1;stroke:none;stroke-width:8;stroke-linecap:round;stroke-linejoin:round;stroke-miterlimit:4;stroke-dasharray:none;stroke-dashoffset:0;stroke-opacity:1" />
    <path
       inkscape:connector-curvature="0"
       id="circle20802"
       d="M 64.00015,34.911713 A 58.179791,58.179791 0 0 0 6.172025,87.274994 H 17.867338 A 46.5439,46.5439 0 0 1 64.00015,46.548431 46.5439,46.5439 0 0 1 110.11929,87.274994 h 11.76758 A 58.179791,58.179791 0 0 0 64.00015,34.911713 Z"
       style="opacity:1;fill:url(#linearGradient1469);fill-opacity:1;stroke:none;stroke-width:4.85127258;stroke-linecap:square;stroke-linejoin:bevel;stroke-miterlimit:4;stroke-dasharray:none;stroke-dashoffset:0;stroke-opacity:1" />
  </g>
</svg>
